X:16012
T: the Boatie Rows
R: reel
B: RSCDS 16-1(II) 1951
Z: 1997 by John Chambers <jc:trillian.mit.edu>
N: "Old Song -- here from Surenne"
M: C
L: 1/8
%--------------------
K: F
F2 \
| "F"Ac3 "C7"c3d | "F"c2f2 "Bb"gfed | "F"cA3 "G7"G3F | "C"G4- "C7"G2F2 |
| "F"Ac3 "C7"c3d | "F"c2f2 "Bb"gfed | "F"cA3 "C7"G3A | "F"F6 :|
|: c2 \
| "F"(f2c2) (c2d2) | (f2c2) (c2f2) | "Bb"(d3c) "G7"(d2f2) | "C7"g6 e2 |
| "F"fa3 "Bb"d3f | "F"c3f c2A2 | "Gm"G3F "C7"G2A2 | "F"F6 :|
